dist/img/partners/16.svg

<svg width="82" height="66" viewBox="0 0 82 66" fill="none" xmlns="http://www.w3.org/2000/svg">
<g clip-path="url(#clip0_216_917)">
<path fill-rule="evenodd" clip-rule="evenodd" d="M8.10948 65.3511H0.585938L17.5366 0.593147L40.0894 21.5603L64.4925 0.593147L81.4368 65.3511H73.9153L60.7308 13.9335L40.0894 31.1093L21.2946 13.9335L8.10948 65.3511Z" fill="#2056AE"/>
<path fill-rule="evenodd" clip-rule="evenodd" d="M23.207 65.3511L28.8128 38.6159L36.3325 44.3839L34.4211 53.8769L51.3678 38.6159L53.2141 46.2466L45.6981 53.8769L58.8832 65.3511H49.454L40.0902 57.7207L30.7224 65.3511H23.207Z" fill="#2056AE"/>
<path fill-rule="evenodd" clip-rule="evenodd" d="M19.3826 65.3511H11.8633L23.206 19.6345L40.0892 34.8943L58.8822 19.6345L70.1595 65.3511H62.6399L53.2131 32.971L40.0892 44.3839L26.9025 34.8943L19.3826 65.3511Z" fill="#2056AE"/>
</g>
<defs>
<clipPath id="clip0_216_917">
<rect width="81" height="66" fill="white" transform="translate(0.5)"/>
</clipPath>
</defs>
</svg>

<svg width="82" height="66" viewBox="0 0 82 66" fill="none" xmlns="http://www.w3.org/2000/svg"><g clip-path="url(#clip0_216_917)" fill-rule="evenodd" clip-rule="evenodd" fill="#2056AE"><path d="M8.11 65.351H.585L17.536.593 40.09 21.56 64.493.593l16.944 64.758h-7.522L60.731 13.934 40.089 31.109 21.295 13.933 8.109 65.352z"/><path d="M23.207 65.351l5.606-26.735 7.52 5.768-1.912 9.493 16.947-15.261 1.846 7.63-7.516 7.63 13.185 11.475h-9.429l-9.364-7.63-9.368 7.63h-7.515z"/><path d="M19.383 65.351h-7.52l11.343-45.716 16.883 15.26 18.793-15.26L70.16 65.35h-7.52l-9.426-32.38L40.09 44.384l-13.186-9.49-7.52 30.457z"/></g><defs><clipPath id="clip0_216_917"><path fill="#fff" transform="translate(.5)" d="M0 0h81v66H0z"/></clipPath></defs></svg>
